icons/mask.svg

<svg width="24" height="24" viewBox="0 0 24 24" fill="none" xmlns="http://www.w3.org/2000/svg">
<path fill-rule="evenodd" clip-rule="evenodd" d="M11.7575 3.02986C11.9167 2.99005 12.0833 2.99005 12.2425 3.02986L20.2425 5.02986C20.6877 5.14115 21 5.54113 21 6V7H23C23.5523 7 24 7.44772 24 8V12.5C24 13.8807 22.8807 15 21.5 15H20.3262C19.7783 16.1532 18.9247 17.1324 17.8715 17.8327C17.8512 17.8462 17.8304 17.859 17.8091 17.871L12.4913 20.871C12.1864 21.043 11.8136 21.043 11.5087 20.871L6.19086 17.871C6.16962 17.859 6.14883 17.8462 6.12853 17.8327C5.07526 17.1324 4.2217 16.1532 3.67383 15H2.5C1.11929 15 0 13.8807 0 12.5V8C0 7.44772 0.447715 7 1 7H3V6C3 5.54113 3.3123 5.14115 3.75746 5.02986L11.7575 3.02986ZM3 9H2V12.5C2 12.7761 2.22386 13 2.5 13H3V9ZM5 12C5 13.7257 5.87342 15.2478 7.20686 16.1478L12 18.8518L16.7931 16.1478C18.1266 15.2478 19 13.7257 19 12V6.78078L12 5.03078L5 6.78078V12ZM21 13V9H22V12.5C22 12.7761 21.7761 13 21.5 13H21Z" fill="black"/>
</svg>

<svg
  width="24"
  height="24"
  viewBox="0 0 24 24"
  xmlns="http://www.w3.org/2000/svg"
>
  <path
    fill-rule="evenodd"
    clip-rule="evenodd"
    d="M11.758 3.03a1 1 0 0 1 .485 0l8 2A1 1 0 0 1 21 6v1h2a1 1 0 0 1 1 1v4.5a2.5 2.5 0 0 1-2.5 2.5h-1.174a7.03 7.03 0 0 1-2.517 2.871l-5.318 3a1 1 0 0 1-.982 0l-5.318-3A7.03 7.03 0 0 1 3.674 15H2.5A2.5 2.5 0 0 1 0 12.5V8a1 1 0 0 1 1-1h2V6a1 1 0 0 1 .757-.97l8-2zM3 9H2v3.5a.5.5 0 0 0 .5.5H3V9zm2 3c0 1.726.873 3.248 2.207 4.148L12 18.852l4.793-2.704A4.994 4.994 0 0 0 19 12V6.78l-7-1.75-7 1.75V12zm16 1V9h1v3.5a.5.5 0 0 1-.5.5H21z"
  />
</svg>
